src/assets/svg/icons/fa/nuevos/classic/thin/brazilian-real-sign classic thin.svg

<svg xmlns="http://www.w3.org/2000/svg" viewBox="0 0 512 512"><path d="M400 0C404.4 0 408 3.582 408 8V64.08C426.5 64.68 444.7 68.65 461.8 75.81L475.1 81.38C479.2 83.09 481.1 87.78 479.4 91.85C477.7 95.93 472.1 97.85 468.9 96.14L455.6 90.57C438.1 83.59 421.1 80 403 80H383.1C339.4 80 304 115.4 304 159.1C304 193.4 326.1 223.8 358.8 234.3L446.1 262.5C485.4 275.1 512 311.7 512 352.9C512 405.4 469.4 448 416.9 448H408V504C408 508.4 404.4 512 400 512C395.6 512 392 508.4 392 504V447.1C368.6 447.4 345.7 440.7 325.5 428.7L299.9 413.3C296.1 411.1 294.9 406.2 297.1 402.4C299.4 398.6 304.3 397.3 308.1 399.6L333.7 414.1C352.4 426.1 373.7 432 395.4 432H416.9C460.6 432 496 396.6 496 352.9C496 318.6 473.9 288.2 441.2 277.7L353.9 249.5C314.6 236.9 288 200.3 288 159.1C288 106.6 330.6 64 383.1 64H392V8C392 3.582 395.6 .0003 400 .0003V0zM0 72C0 49.91 17.91 32 40 32H120C195.1 32 256 92.89 256 168C256 236.7 205.1 293.5 138.9 302.7L199.5 469.3C201 473.4 198.9 478 194.7 479.5C190.6 481 185.1 478.9 184.5 474.7L122.4 303.1C121.6 303.1 120.8 303.1 120 303.1H16V472C16 476.4 12.42 480 8 480C3.582 480 .0003 476.4 .0003 472L0 72zM16 288H120C186.3 288 240 234.3 240 168C240 101.7 186.3 48 120 48H40C26.75 48 16 58.75 16 72V288z"/></svg>

<svg xmlns="http://www.w3.org/2000/svg" viewBox="0 0 512 512"><!--! Font Awesome Pro 6.4.0 by @fontawesome - https://fontawesome.com License - https://fontawesome.com/license (Commercial License) Copyright 2023 Fonticons, Inc. --><path d="M400 0c4.4 0 8 3.6 8 8V64.1c18.5 .6 36.7 4.6 53.8 11.7l13.3 5.6c4.1 1.7 6 6.4 4.3 10.5s-6.4 6-10.5 4.3l-13.3-5.6C439 83.6 421.1 80 403 80h-20c-43.7 0-79.1 35.4-79.1 79.1c0 34.3 22.1 64.7 54.8 75.3l87.3 28.1c39.3 12.7 65.9 49.2 65.9 90.5c0 52.5-42.6 95.1-95.1 95.1H408v56c0 4.4-3.6 8-8 8s-8-3.6-8-8V448c-23.4-.6-46.3-7.2-66.5-19.3l-25.6-15.3c-3.8-2.3-5-7.2-2.8-11s7.2-5 11-2.8L333.7 415c18.6 11.2 39.9 17 61.6 17h21.5c43.7 0 79.1-35.4 79.1-79.1c0-34.3-22.1-64.7-54.8-75.3l-87.3-28.1c-39.3-12.7-65.9-49.2-65.9-90.5c0-52.5 42.6-95.1 95.1-95.1H392V8c0-4.4 3.6-8 8-8zM0 72C0 49.9 17.9 32 40 32h80c75.1 0 136 60.9 136 136c0 68.7-50.9 125.5-117.1 134.7l60.6 166.6c1.5 4.2-.6 8.7-4.8 10.2s-8.7-.6-10.3-4.8L122.4 304c-.8 0-1.6 0-2.4 0H16V472c0 4.4-3.6 8-8 8s-8-3.6-8-8V296 72zM16 288H120c66.3 0 120-53.7 120-120s-53.7-120-120-120H40C26.7 48 16 58.7 16 72V288z"/></svg>
